X: 87
T: Adonay sanctissime Domine Deus
C: Gaspar van Weerbeke
%%abc-version 2.0
%%abcx-abcm2ps-target-version 5.9.1 (29 Sep 2008)
%%abc-creator hum2abc beta
%%abcx-conversion-date 2022/03/06 13:05:58
%%abc-copyright Copyright 2008, Pavanello, Agnese
%%abc-edited-by Mair-Gruber, Roland
%%humdrum-veritas 900362508
%%humdrum-veritas-data 336394677
%%linebreak <none>
%%barnumbers 0
L: 1/4
M: 2/2
N: Derived from Gas0412.2-Adonay_sanctissime_Domine_Deus.krn
%%staves {1 2}
V: 1 clef=treble
V: 2 clef=bass
K: C
[V:1] z4 & G,4 | 
[V:2] z4 & z4 | 
[V:1] G4 & _B,3G, | 
[V:2] z4 & z4 | 
[V:1] _B3G & D2D/C/_B,/A,/ | 
[V:2] G,4 & z4 | 
[V:1] d2d/c/_B/A/ & G,4 | 
[V:2] _B,3G, & G,4 | 
[V:1] G3F/_E/ & z2G,2 | 
[V:2] _B,2C2 & _E,2E,2 | 
[V:1] F4 & A,4 | 
[V:2] D4 & D,4 | 
[V:1] _B4 & G,2DE | 
[V:2] D3_B, & z2G,2 | 
[V:1] A2GA & F2zC | 
[V:2] C2_B,A, & F,2G,F, | 
[V:1] z/ G/F/E/DF & F2D2 | 
[V:2] C2D2 & z/ E,/D,/C,/_B,,_B, | 
[V:1] GA2_B & _EF2E/D/ | 
[V:2] _B,CD2 & G,F,2G, | 
[V:1] cA2d & CF2F | 
[V:2] A,D2C/_B,/ & A,F,D,3/E,/ | 
[V:1] cA_BA- & F2zF | 
[V:2] A,2DC & F,2_B,,F, | 
[V:1] AG2^F & z/ E/CD2 | 
[V:2] z/ _B,/G,A,2 & z/ G,/E,D,2 | 
[V:1] G4 & D4 | 
[V:2] G,4 & (3:2:6_E, D, C, _B,, C, D, | 
[V:1] z4 & z4 | 
[V:2] _B,4 & G,,>A,, _B,,/C,/D, | 
[V:1] z4 & z4 | 
[V:2] _B,2B,2 & _E,G,2F,/E,/ | 
[V:1] z4 & z4 | 
[V:2] zA,/G,/A,_B, & G,F,/E,/F,G, | 
[V:1] z4 & z4 | 
[V:2] C3_B, & A,3G, | 
[V:1] z4 & z4 | 
[V:2] _B,4 & zF,/_E,/D,E, | 
[V:1] z4 & z4 | 
[V:2] _B,3A,/G,/ & D,3E, | 
[V:1] z4 & z4 | 
[V:2] A,2G,_B,- & F,2zG,- | 
[V:1] z4 & z4 | 
[V:2] B,A,/G,/A,_B, & G,F,/E,/F,G, | 
[V:1] z4 & z4 | 
[V:2] G,B,A,B,- & _B,A,/G,/F,G,- | 
[V:1] z4 & z4 | 
[V:2] B,A,/G,/F,E, & G,F,/E,/D,E, | 
[V:1] z4 & z4 | 
[V:2] D,/E,/F,/G,/ A,/_B,/C & F,/G,/F,D,E, | 
[V:1] z4 & z4 | 
[V:2] z/ D/_B,2A, & E,/F,/D,C,2 | 
[V:1] z4 & z4 | 
[V:2] _B,4 & _B,,4 | 
[V:1] _B4 & F2F2 | 
[V:2] z2D2 & _B,,4 | 
[V:1] _B2B2 & F3E | 
[V:2] D2D2 & _B,,2B,,2 | 
[V:1] _B4 & D>C_B,A,/G,/ | 
[V:2] D4 & _B,,4 | 
[V:1] A2G2 & F,FF/D/E | 
[V:2] C2_B,2 & F,2G,2 | 
[V:1] A2_B2 & F/E/D/C/_B,2 | 
[V:2] A,2D2 & F,2G,2 | 
[V:1] c3_B/A/ & A,3F, | 
[V:2] C2A,_B, & A,2F,2 | 
[V:1] GFG2 & G,A,2G, | 
[V:2] CD2C & E,D,E,2 | 
[V:1] F4 & A,2D3/C/ | 
[V:2] D4 & D,4 | 
[V:1] _B4 & _B,/A,/G,2F,/E,/ | 
[V:2] z4 & z4 | 
[V:1] _B2B2 & D,E,/F,/ G,/A,/_B,/C/ | 
[V:2] z4 & z4 | 
[V:1] zA/G/A2 & DE^F2 | 
[V:2] z4 & z4 | 
[V:1] G2_B2 & zG2F/E/ | 
[V:2] z4 & z4 | 
[V:1] A_B2A/G/ & F/E/D/C/ D/C/D/E/ | 
[V:2] z4 & z4 | 
[V:1] A2G_B & F2_ED | 
[V:2] z4 & z4 | 
[V:1] A_B2A/G/ & CD2C/_B,/ | 
[V:2] z4 & z4 | 
[V:1] F2D3/E/ & A,D2C/_B,/ | 
[V:2] z4 & z4 | 
[V:1] F/G/A/_B/cd- & A,/_B,/C/D/EF | 
[V:2] z4 & z4 | 
[V:1] d_B2A & D2C2 | 
[V:2] z4 & z4 | 
[V:1] _B2z2 & _B,2z2 | 
[V:2] D,3E, & _B,,3C, | 
[V:1] z4 & z4 | 
[V:2] F,G,A,_B, & D,E,F,D,- | 
[V:1] z4 & z4 | 
[V:2] z/ A,/G,2^F, & D,C,/_B,,/A,,2 | 
[V:1] D3E & _B,3C | 
[V:2] G,2z2 & G,,2z2 | 
[V:1] FGA_B & DEFD- | 
[V:2] z4 & z4 | 
[V:1] z/ A/G2^F & DC/_B,/A,2 | 
[V:2] z4 & z4 | 
[V:1] G2zG- & G,4 | 
[V:2] _B,3A,/G,/ & G,>F,D,E,- | 
[V:1] GF/E/ D/E/F/G/ & G,>A,_B,F,- | 
[V:2] _B,3B, & E,D,/C,/ _B,,/C,/D,/E,/ | 
[V:1] A>GEF- & F,/G,/A,/_B,/Cz | 
[V:2] A,3G,/F,/ & F,>E,C,D,- | 
[V:1] FE/D/ C/D/E/F/ & F,F,/G,/A,E,- | 
[V:2] A,3A, & D,C,/_B,,/ A,,/B,,/C,/D,/ | 
[V:1] G>FDE- & E,/F,/G,/A,/B,2 | 
[V:2] G,3F,/E,/ & E,>D,B,,C,- | 
[V:1] ED/C/ B,/C/D/E/ & G,G,/A,/B,D,- | 
[V:2] G,3G, & C,B,,/A,,/ G,,/A,,/_B,,/C,/ | 
[V:1] F>ECD- & D,/E,/F,/G,/A,2 | 
[V:2] F,3E,/D,/ & D,>C,A,,_B,,- | 
[V:1] DC/B,/A,2 & _B,F,2D- | 
[V:2] F,3F, & B,,A,,/G,,/D,2 | 
[V:1] G,/A,/_B,/C/DE & D_B,2A,- | 
[V:2] G,>A,_B,C & G,,G,G,/F,/E, | 
[V:1] F>GA_B- & A,G,F2- | 
[V:2] D_B,CD- & D,G,F,_B,,- | 
[V:1] BA/G/F2 & FED2 | 
[V:2] DC/_B,/A,2 & B,,C,D,2 | 
[V:1] G3^F/E/ & _B,2C2 | 
[V:2] G,4 & _E,4 | 
[V:1] ^F4 & D4 | 
[V:2] A,4 & D,4 | 
[V:1] G4 & D4 |]  
[V:2] G,4 & G,,4 |]  


